public/themes/EC/images/swim.svg

<?xml version="1.0" encoding="UTF-8"?>
<svg width="45px" height="39px" viewBox="0 0 45 39" version="1.1" xmlns="http://www.w3.org/2000/svg" xmlns:xlink="http://www.w3.org/1999/xlink">
    <!-- Generator: Sketch 61 (89581) - https://sketch.com -->
    <title>swim</title>
    <desc>Created with Sketch.</desc>
    <g id="Page-1" stroke="none" stroke-width="1" fill="none" fill-rule="evenodd">
        <g id="swim" fill="#78B3AC" fill-rule="nonzero">
            <path d="M0.293826293,25.6742584 C0.501358778,25.2899907 0.86037751,25.0130025 1.28148,24.9122692 C1.70258248,24.8115359 2.1461429,24.8965364 2.50170627,25.146104 C10.9317934,31.2401932 16.3511352,28.8025575 22.5733424,26.0399038 C28.3941169,23.3991318 34.9374703,20.473969 44.0901363,25.4711221 C44.9193209,25.9511024 45.2359485,27.0014499 44.8127153,27.8681305 C44.6473238,28.2804963 44.3181994,28.6034554 43.9058324,28.7580253 C43.4934654,28.9125952 43.0358785,28.8845236 42.6449785,28.6806757 C34.8170405,24.3335588 29.4779852,26.7305672 23.7776406,29.2900846 C20.2851759,30.8745478 16.7124247,32.4996382 12.5375243,32.4996382 C8.25455521,32.3454077 4.13280793,30.8078116 0.775545561,28.1118941 C0.0268609581,27.5408996 -0.180270167,26.4927576 0.293826293,25.6742584 Z M44.0499931,31.9714839 C34.9374703,26.9337035 28.3941169,29.9401208 22.5733424,32.5402655 C16.3511352,35.3435465 10.9317934,37.7811822 2.50170627,31.6464658 C2.14367361,31.3824136 1.68990267,31.2889282 1.25836593,31.3903141 C0.826829196,31.4917001 0.460158946,31.7779414 0.253683021,32.1746202 C-0.220413439,32.9931193 -0.0132823142,34.0412614 0.735402288,34.6122558 C4.1145241,37.3244728 8.26697801,38.8630218 12.5776676,39 C16.7124247,39 20.2851759,37.3749096 23.8177838,35.7904464 C29.437842,33.2309289 34.8170405,30.8339205 42.6449785,35.1404102 C43.0358785,35.3442581 43.4934654,35.3723297 43.9058324,35.2177598 C44.3181994,35.0631899 44.6473238,34.7402308 44.8127153,34.327865 C45.2107812,33.4715192 44.8973136,32.449279 44.0901363,31.9714839 L44.0499931,31.9714839 Z M36.9446339,16.2487339 C39.6050959,16.2487339 41.7618266,14.0660005 41.7618266,11.3734625 C41.7618266,8.68092454 39.6050959,6.49819122 36.9446339,6.49819122 C34.2841718,6.49819122 32.1274412,8.68092454 32.1274412,11.3734625 C32.1274412,14.0660005 34.2841718,16.2487339 36.9446339,16.2487339 L36.9446339,16.2487339 Z M22.5733424,22.7490956 C25.463658,21.408396 28.6751198,19.9051873 32.1274412,19.4176602 C32.1274412,19.4176602 30.5217103,15.8424612 29.3976987,13.7704709 L22.1719097,1.90731074 C21.1683279,0.160338514 19.1611643,-0.530324923 16.7525679,0.44472934 L8.00133457,4.06055557 C6.77322202,4.56895145 6.15513442,5.96301112 6.59632004,7.22948192 C6.8278897,7.8543995 7.30251006,8.35589189 7.9094384,8.61694636 C8.51636675,8.87800082 9.20251391,8.87578243 9.80778182,8.6108088 L16.8729977,5.56376422 C17.6184803,5.25075372 18.4776934,5.54640827 18.8801614,6.25442766 L21.2887577,11.6172261 L6.43574695,22.7490956 C13.5009629,26.7305672 16.9934276,25.3086131 22.6134857,22.7490956 L22.5733424,22.7490956 Z" id="Shape"></path>
        </g>
    </g>
</svg>

<svg width="45" height="39" viewBox="0 0 45 39" xmlns="http://www.w3.org/2000/svg"><title>swim</title><path d="M.294 25.674c.207-.384.566-.661.987-.762a1.51 1.51 0 0 1 1.22.234c8.43 6.094 13.85 3.657 20.072.894 5.821-2.64 12.364-5.566 21.517-.569a1.84 1.84 0 0 1 .723 2.397 1.574 1.574 0 0 1-.907.89c-.413.155-.87.127-1.261-.077-7.828-4.347-13.167-1.95-18.867.61-3.493 1.584-7.066 3.209-11.24 3.209A19.928 19.928 0 0 1 .776 28.112a1.884 1.884 0 0 1-.482-2.438zm43.756 6.297c-9.113-5.037-15.656-2.03-21.477.57-6.222 2.803-11.641 5.24-20.071-.895a1.511 1.511 0 0 0-1.244-.256 1.528 1.528 0 0 0-1.004.785 1.884 1.884 0 0 0 .481 2.437A19.927 19.927 0 0 0 12.578 39c4.134 0 7.707-1.625 11.24-3.21 5.62-2.56 10.999-4.956 18.827-.65.39.204.848.232 1.26.078.413-.155.742-.478.908-.89a1.84 1.84 0 0 0-.723-2.357h-.04zM36.945 16.25c2.66 0 4.817-2.183 4.817-4.876 0-2.692-2.157-4.875-4.817-4.875s-4.818 2.183-4.818 4.875c0 2.693 2.157 4.876 4.818 4.876zm-14.372 6.5c2.89-1.34 6.102-2.844 9.554-3.331 0 0-1.605-3.576-2.73-5.648L22.173 1.907C21.168.16 19.162-.53 16.752.445L8.003 4.06a2.529 2.529 0 0 0-1.406 3.168A2.425 2.425 0 0 0 7.91 8.617a2.382 2.382 0 0 0 1.899-.006l7.065-3.047a1.596 1.596 0 0 1 2.007.69l2.409 5.363L6.436 22.75c7.065 3.982 10.557 2.56 16.177 0h-.04z" fill="#78B3AC"/></svg>
